assets/Cucumber/Flat/cucumber_flat.svg

<svg width="32" height="32" viewBox="0 0 32 32" fill="none" xmlns="http://www.w3.org/2000/svg">
<path d="M29.6 13.6C29.6 13.12 29.36 12.7 29 12.45C29.32 10.98 29.48 9.46 29.48 7.9C29.48 4.64 26.84 2 23.58 2C20.32 2 17.68 4.64 17.68 7.9C17.68 8.73 17.58 9.54 17.38 10.31C16.64 10.35 16.05 10.96 16.05 11.71C16.05 12.08 16.2 12.42 16.44 12.68C15.54 14.29 14.2 15.61 12.58 16.5C12.32 16.15 11.91 15.92 11.44 15.92C10.66 15.92 10.03 16.55 10.03 17.33C10.03 17.37 10.03 17.42 10.04 17.46C9.35 17.61 8.64 17.7 7.9 17.7C4.64 17.7 2 20.34 2 23.6C2 26.86 4.64 29.5 7.9 29.5C9.03 29.5 10.14 29.41 11.23 29.24C11.46 29.68 11.93 29.99 12.47 29.99C13.23 29.99 13.85 29.39 13.87 28.63C16.86 27.77 19.59 26.27 21.89 24.3C22.06 24.37 22.24 24.41 22.43 24.41C23.21 24.41 23.84 23.78 23.84 23C23.84 22.83 23.81 22.67 23.75 22.51C25.73 20.36 27.28 17.81 28.27 15C29.01 14.96 29.6 14.35 29.6 13.6Z" fill="#44911B"/>
<path d="M23.49 12.35C23.49 12.9796 22.9796 13.49 22.35 13.49C21.7204 13.49 21.21 12.9796 21.21 12.35C21.21 11.7204 21.7204 11.21 22.35 11.21C22.9796 11.21 23.49 11.7204 23.49 12.35Z" fill="#86D72F"/>
<path d="M18.66 20.55C19.2896 20.55 19.8 20.0396 19.8 19.41C19.8 18.7804 19.2896 18.27 18.66 18.27C18.0304 18.27 17.52 18.7804 17.52 19.41C17.52 20.0396 18.0304 20.55 18.66 20.55Z" fill="#86D72F"/>
<path d="M11.85 24.55C12.4796 24.55 12.99 24.0396 12.99 23.41C12.99 22.7804 12.4796 22.27 11.85 22.27C11.2204 22.27 10.71 22.7804 10.71 23.41C10.71 24.0396 11.2204 24.55 11.85 24.55Z" fill="#86D72F"/>
</svg>

<svg xmlns="http://www.w3.org/2000/svg" width="32" height="32" fill="none"><path fill="#44911B" d="M29.6 13.6c0-.48-.24-.9-.6-1.15.32-1.47.48-2.99.48-4.55 0-3.26-2.64-5.9-5.9-5.9-3.26 0-5.9 2.64-5.9 5.9 0 .83-.1 1.64-.3 2.41-.74.04-1.33.65-1.33 1.4 0 .37.15.71.39.97a9.846 9.846 0 0 1-3.86 3.82 1.408 1.408 0 0 0-2.55.83c0 .04 0 .09.01.13-.69.15-1.4.24-2.14.24-3.26 0-5.9 2.64-5.9 5.9 0 3.26 2.64 5.9 5.9 5.9 1.13 0 2.24-.09 3.33-.26.23.44.7.75 1.24.75.76 0 1.38-.6 1.4-1.36a21.47 21.47 0 0 0 8.02-4.33 1.408 1.408 0 0 0 1.86-1.79A21.77 21.77 0 0 0 28.27 15c.74-.04 1.33-.65 1.33-1.4Z"/><path fill="#86D72F" d="M23.49 12.35a1.14 1.14 0 1 1-2.28 0 1.14 1.14 0 0 1 2.28 0ZM18.66 20.55a1.14 1.14 0 1 0 0-2.28 1.14 1.14 0 0 0 0 2.28ZM11.85 24.55a1.14 1.14 0 1 0 0-2.28 1.14 1.14 0 0 0 0 2.28Z"/></svg>
